mimes/48/image-vnd.adobe.photoshop.svg

<?xml version="1.0" encoding="UTF-8" standalone="no"?>
<!-- Created with Inkscape (http://www.inkscape.org/) -->

<svg
   xmlns:dc="http://purl.org/dc/elements/1.1/"
   xmlns:cc="http://creativecommons.org/ns#"
   xmlns:rdf="http://www.w3.org/1999/02/22-rdf-syntax-ns#"
   xmlns:svg="http://www.w3.org/2000/svg"
   xmlns="http://www.w3.org/2000/svg"
   xmlns:xlink="http://www.w3.org/1999/xlink"
   xmlns:inkscape="http://www.inkscape.org/namespaces/inkscape"
   version="1.1"
   width="48"
   height="48"
   id="svg4101">
  <defs
     id="defs4103">
    <linearGradient
       x1="23.99999"
       y1="5.5641499"
       x2="23.99999"
       y2="43"
       id="linearGradient3988"
       xlink:href="#linearGradient3977"
       gradientUnits="userSpaceOnUse"
       gradientTransform="matrix(0.89189189,0,0,1.1351351,2.5945999,-4.7432313)" />
    <linearGradient
       id="linearGradient3977">
      <stop
         id="stop3979"
         style="stop-color:#ffffff;stop-opacity:1"
         offset="0" />
      <stop
         id="stop3981"
         style="stop-color:#ffffff;stop-opacity:0.23529412"
         offset="0.03626217" />
      <stop
         id="stop3983"
         style="stop-color:#ffffff;stop-opacity:0.15686275"
         offset="0.95056331" />
      <stop
         id="stop3985"
         style="stop-color:#ffffff;stop-opacity:0.39215687"
         offset="1" />
    </linearGradient>
    <radialGradient
       cx="7.8060555"
       cy="9.9571075"
       r="12.671875"
       fx="7.2758255"
       fy="9.9571075"
       id="radialGradient3060-0-4"
       xlink:href="#linearGradient2867-449-88-871-390-598-476-591-434-148-57-177-8-3"
       gradientUnits="userSpaceOnUse"
       gradientTransform="matrix(-1.6167311e-7,6.6018651,-8.0922115,-1.9817022e-7,104.56429,-60.072946)" />
    <linearGradient
       id="linearGradient2867-449-88-871-390-598-476-591-434-148-57-177-8-3">
      <stop
         id="stop3750-1-0"
         style="stop-color:#90dbec;stop-opacity:1"
         offset="0" />
      <stop
         id="stop3752-3-7"
         style="stop-color:#55c1ec;stop-opacity:1"
         offset="0.26238" />
      <stop
         id="stop3754-1-8"
         style="stop-color:#3689e6;stop-opacity:1"
         offset="0.704952" />
      <stop
         id="stop3756-1-6"
         style="stop-color:#2b63a0;stop-opacity:1"
         offset="1" />
    </linearGradient>
    <linearGradient
       x1="25"
       y1="47.935162"
       x2="25"
       y2="0.91790956"
       id="linearGradient3062-0-8"
       xlink:href="#linearGradient3707-319-631-407-324-3-8"
       gradientUnits="userSpaceOnUse"
       gradientTransform="translate(0,-4.6076e-4)" />
    <linearGradient
       id="linearGradient3707-319-631-407-324-3-8">
      <stop
         id="stop3760-4-4"
         style="stop-color:#185f9a;stop-opacity:1"
         offset="0" />
      <stop
         id="stop3762-0-3"
         style="stop-color:#599ec9;stop-opacity:1"
         offset="1" />
    </linearGradient>
    <radialGradient
       cx="605.71429"
       cy="486.64789"
       r="117.14286"
       fx="605.71429"
       fy="486.64789"
       id="radialGradient3327"
       xlink:href="#linearGradient5060"
       gradientUnits="userSpaceOnUse"
       gradientTransform="matrix(0.02303995,0,0,0.01470022,26.360882,37.040176)" />
    <linearGradient
       id="linearGradient5060">
      <stop
         id="stop5062"
         style="stop-color:#000000;stop-opacity:1"
         offset="0" />
      <stop
         id="stop5064"
         style="stop-color:#000000;stop-opacity:0"
         offset="1" />
    </linearGradient>
    <radialGradient
       cx="605.71429"
       cy="486.64789"
       r="117.14286"
       fx="605.71429"
       fy="486.64789"
       id="radialGradient3330"
       xlink:href="#linearGradient5060"
       gradientUnits="userSpaceOnUse"
       gradientTransform="matrix(-0.02303994,0,0,0.01470022,21.62311,37.040176)" />
    <linearGradient
       id="linearGradient5048">
      <stop
         id="stop5050"
         style="stop-color:#000000;stop-opacity:0"
         offset="0" />
      <stop
         id="stop5056"
         style="stop-color:#000000;stop-opacity:1"
         offset="0.5" />
      <stop
         id="stop5052"
         style="stop-color:#000000;stop-opacity:0"
         offset="1" />
    </linearGradient>
    <linearGradient
       x1="302.85715"
       y1="366.64789"
       x2="302.85715"
       y2="609.50507"
       id="linearGradient4099"
       xlink:href="#linearGradient5048"
       gradientUnits="userSpaceOnUse"
       gradientTransform="matrix(0.06732488,0,0,0.01470022,-0.3411391,37.040146)" />
  </defs>
  <metadata
     id="metadata4106">
    <rdf:RDF>
      <cc:Work
         rdf:about="">
        <dc:format>image/svg+xml</dc:format>
        <dc:type
           rdf:resource="http://purl.org/dc/dcmitype/StillImage" />
        <dc:title />
      </cc:Work>
    </rdf:RDF>
  </metadata>
  <g
     id="layer1">
    <rect
       width="32.508301"
       height="3.5700529"
       x="7.7378473"
       y="42.429947"
       id="rect2879"
       style="opacity:0.3;fill:url(#linearGradient4099);fill-opacity:1;fill-rule:nonzero;stroke:none;stroke-width:1;marker:none;visibility:visible;display:inline;overflow:visible" />
    <path
       d="m 7.7378475,42.430102 c 0,0 0,3.569856 0,3.569856 -1.1865002,0.0067 -2.8683795,-0.799823 -2.8683795,-1.785158 0,-0.985333 1.3240446,-1.784697 2.8683795,-1.784698 z"
       inkscape:connector-curvature="0"
       id="path2881"
       style="opacity:0.3;fill:url(#radialGradient3330);fill-opacity:1;fill-rule:nonzero;stroke:none;stroke-width:1;marker:none;visibility:visible;display:inline;overflow:visible" />
    <path
       d="m 40.246148,42.430102 c 0,0 0,3.569856 0,3.569856 1.1865,0.0067 2.86838,-0.799823 2.86838,-1.785158 0,-0.985333 -1.324045,-1.784697 -2.86838,-1.784698 z"
       inkscape:connector-curvature="0"
       id="path2883"
       style="opacity:0.3;fill:url(#radialGradient3327);fill-opacity:1;fill-rule:nonzero;stroke:none;stroke-width:1;marker:none;visibility:visible;display:inline;overflow:visible" />
    <path
       d="m 6.4999609,0.49719907 c 8.0202951,0 35.0000391,0.002801 35.0000391,0.002801 l 4.2e-5,44.00280293 c 0,0 -23.333387,0 -35.0000811,0 0,-14.668535 0,-29.33707 0,-44.005604 z"
       inkscape:connector-curvature="0"
       id="path4160"
       style="color:#000000;fill:url(#radialGradient3060-0-4);fill-opacity:1;fill-rule:nonzero;stroke:url(#linearGradient3062-0-8);stroke-width:1;stroke-linecap:butt;stroke-linejoin:round;stroke-miterlimit:4;stroke-opacity:1;stroke-dasharray:none;stroke-dashoffset:0;marker:none;visibility:visible;display:inline;overflow:visible;enable-background:accumulate" />
    <path
       d="m 40.5,43.5 -33,0 0,-41.9999997 33,0 z"
       inkscape:connector-curvature="0"
       id="rect6741-1"
       style="opacity:0.5;fill:none;stroke:url(#linearGradient3988);stroke-width:1;stroke-linecap:round;stroke-linejoin:round;stroke-miterlimit:4;stroke-opacity:1;stroke-dasharray:none;stroke-dashoffset:0" />
    <path
       d="M 17.75,14.75 C 16.432948,14.76066 14.774699,14.853885 13,15.15625 L 13,32 l 4,0 0,-6.09375 c 0,0 7.881554,0.731286 8.03125,-5.03125 0,0 1.03964,-6.192367 -7.28125,-6.125 z m 0.40625,3 c 2.426999,0.0091 3.062209,0.869746 3.125,2.46875 C 21.28125,23.571531 17,22.75 17,22.75 l 0,-4.9375 c 0.423662,-0.03251 0.809536,-0.06379 1.15625,-0.0625 z m 12.25,1.46875 c -0.971367,0.04397 -1.929108,0.269708 -2.78125,0.75 -1.578811,0.930899 -1.77598,3.202648 -0.90625,4.6875 1.086843,1.604321 3.177432,1.834878 4.65625,2.9375 0.750707,0.49843 0.364171,1.763072 -0.5,1.84375 -1.592336,0.260558 -3.193524,-0.31522 -4.625,-0.96875 l 0,2.28125 c -0.198531,0.675895 0.631678,0.692696 1.09375,0.875 1.719366,0.417098 3.581629,0.479861 5.28125,-0.0625 1.50131,-0.441974 2.580978,-1.938346 2.5,-3.5 -5.23e-4,-0.418225 -0.07999,-0.822199 -0.21875,-1.21875 -0.59155,-1.63988 -2.427884,-2.174582 -3.84375,-2.875 -0.899693,-0.230442 -2.224157,-1.355809 -1.03125,-2.125 1.340661,-0.420702 2.72677,0.206239 3.9375,0.75 L 34.84375,20.5 c 0.292694,-0.658139 -1.126295,-0.648265 -1.5625,-0.9375 -0.919631,-0.259166 -1.903632,-0.387719 -2.875,-0.34375 z"
       inkscape:connector-curvature="0"
       id="path3879"
       style="fill:#ffffff;stroke:none" />
  </g>
</svg>

<?xml version="1.0" encoding="UTF-8" standalone="no"?>
<!-- Created with Inkscape (http://www.inkscape.org/) -->

<svg
   xmlns:dc="http://purl.org/dc/elements/1.1/"
   xmlns:cc="http://creativecommons.org/ns#"
   xmlns:rdf="http://www.w3.org/1999/02/22-rdf-syntax-ns#"
   xmlns:svg="http://www.w3.org/2000/svg"
   xmlns="http://www.w3.org/2000/svg"
   xmlns:xlink="http://www.w3.org/1999/xlink"
   xmlns:sodipodi="http://sodipodi.sourceforge.net/DTD/sodipodi-0.dtd"
   xmlns:inkscape="http://www.inkscape.org/namespaces/inkscape"
   width="48px"
   height="48px"
   id="svg4101"
   version="1.1"
   inkscape:version="0.48.2 r9819"
   sodipodi:docname="image-x-psd.svg">
  <defs
     id="defs4103">
    <linearGradient
       inkscape:collect="always"
       xlink:href="#linearGradient3977"
       id="linearGradient3988"
       gradientUnits="userSpaceOnUse"
       gradientTransform="matrix(0.89189189,0,0,1.1351351,2.5945999,-4.7432313)"
       x1="23.99999"
       y1="5.5641499"
       x2="23.99999"
       y2="43" />
    <linearGradient
       id="linearGradient3977">
      <stop
         offset="0"
         style="stop-color:#ffffff;stop-opacity:1;"
         id="stop3979" />
      <stop
         id="stop3981"
         style="stop-color:#ffffff;stop-opacity:0.23529412;"
         offset="0.03626217" />
      <stop
         offset="0.95056331"
         style="stop-color:#ffffff;stop-opacity:0.15686275;"
         id="stop3983" />
      <stop
         offset="1"
         style="stop-color:#ffffff;stop-opacity:0.39215687;"
         id="stop3985" />
    </linearGradient>
    <radialGradient
       r="12.671875"
       fy="9.9571075"
       fx="7.2758255"
       cy="9.9571075"
       cx="7.8060555"
       gradientTransform="matrix(-1.6167311e-7,6.6018651,-8.0922115,-1.9817022e-7,104.56429,-60.072946)"
       gradientUnits="userSpaceOnUse"
       id="radialGradient3060-0-4"
       xlink:href="#linearGradient2867-449-88-871-390-598-476-591-434-148-57-177-8-3"
       inkscape:collect="always" />
    <linearGradient
       id="linearGradient2867-449-88-871-390-598-476-591-434-148-57-177-8-3">
      <stop
         offset="0"
         style="stop-color:#90dbec;stop-opacity:1;"
         id="stop3750-1-0" />
      <stop
         offset="0.26238"
         style="stop-color:#55c1ec;stop-opacity:1;"
         id="stop3752-3-7" />
      <stop
         offset="0.704952"
         style="stop-color:#3689e6;stop-opacity:1;"
         id="stop3754-1-8" />
      <stop
         offset="1"
         style="stop-color:#2b63a0;stop-opacity:1;"
         id="stop3756-1-6" />
    </linearGradient>
    <linearGradient
       y2="0.91790956"
       x2="25"
       y1="47.935162"
       x1="25"
       gradientTransform="translate(0,-4.6076e-4)"
       gradientUnits="userSpaceOnUse"
       id="linearGradient3062-0-8"
       xlink:href="#linearGradient3707-319-631-407-324-3-8"
       inkscape:collect="always" />
    <linearGradient
       id="linearGradient3707-319-631-407-324-3-8">
      <stop
         offset="0"
         style="stop-color:#185f9a;stop-opacity:1;"
         id="stop3760-4-4" />
      <stop
         offset="1"
         style="stop-color:#599ec9;stop-opacity:1;"
         id="stop3762-0-3" />
    </linearGradient>
    <radialGradient
       inkscape:collect="always"
       xlink:href="#linearGradient5060"
       id="radialGradient3327"
       gradientUnits="userSpaceOnUse"
       gradientTransform="matrix(0.02303995,0,0,0.01470022,26.360882,37.040176)"
       cx="605.71429"
       cy="486.64789"
       fx="605.71429"
       fy="486.64789"
       r="117.14286" />
    <linearGradient
       id="linearGradient5060">
      <stop
         id="stop5062"
         style="stop-color:#000000;stop-opacity:1"
         offset="0" />
      <stop
         id="stop5064"
         style="stop-color:#000000;stop-opacity:0"
         offset="1" />
    </linearGradient>
    <radialGradient
       inkscape:collect="always"
       xlink:href="#linearGradient5060"
       id="radialGradient3330"
       gradientUnits="userSpaceOnUse"
       gradientTransform="matrix(-0.02303994,0,0,0.01470022,21.62311,37.040176)"
       cx="605.71429"
       cy="486.64789"
       fx="605.71429"
       fy="486.64789"
       r="117.14286" />
    <linearGradient
       id="linearGradient5048">
      <stop
         id="stop5050"
         style="stop-color:#000000;stop-opacity:0"
         offset="0" />
      <stop
         id="stop5056"
         style="stop-color:#000000;stop-opacity:1"
         offset="0.5" />
      <stop
         id="stop5052"
         style="stop-color:#000000;stop-opacity:0"
         offset="1" />
    </linearGradient>
    <linearGradient
       y2="609.50507"
       x2="302.85715"
       y1="366.64789"
       x1="302.85715"
       gradientTransform="matrix(0.06732488,0,0,0.01470022,-0.3411391,37.040146)"
       gradientUnits="userSpaceOnUse"
       id="linearGradient4099"
       xlink:href="#linearGradient5048"
       inkscape:collect="always" />
  </defs>
  <sodipodi:namedview
     id="base"
     pagecolor="#ffffff"
     bordercolor="#666666"
     borderopacity="1.0"
     inkscape:pageopacity="0.0"
     inkscape:pageshadow="2"
     inkscape:zoom="7"
     inkscape:cx="24"
     inkscape:cy="24"
     inkscape:current-layer="layer1"
     showgrid="true"
     inkscape:grid-bbox="true"
     inkscape:document-units="px"
     inkscape:window-width="453"
     inkscape:window-height="430"
     inkscape:window-x="412"
     inkscape:window-y="175"
     inkscape:window-maximized="0" />
  <metadata
     id="metadata4106">
    <rdf:RDF>
      <cc:Work
         rdf:about="">
        <dc:format>image/svg+xml</dc:format>
        <dc:type
           rdf:resource="http://purl.org/dc/dcmitype/StillImage" />
        <dc:title />
      </cc:Work>
    </rdf:RDF>
  </metadata>
  <g
     id="layer1"
     inkscape:label="Layer 1"
     inkscape:groupmode="layer">
    <rect
       style="opacity:0.3;fill:url(#linearGradient4099);fill-opacity:1;fill-rule:nonzero;stroke:none;stroke-width:1;marker:none;visibility:visible;display:inline;overflow:visible"
       id="rect2879"
       y="42.429947"
       x="7.7378473"
       height="3.5700529"
       width="32.508301" />
    <path
       inkscape:connector-curvature="0"
       style="opacity:0.3;fill:url(#radialGradient3330);fill-opacity:1;fill-rule:nonzero;stroke:none;stroke-width:1;marker:none;visibility:visible;display:inline;overflow:visible"
       id="path2881"
       d="m 7.7378475,42.430102 c 0,0 0,3.569856 0,3.569856 -1.1865002,0.0067 -2.8683795,-0.799823 -2.8683795,-1.785158 0,-0.985333 1.3240446,-1.784697 2.8683795,-1.784698 z" />
    <path
       inkscape:connector-curvature="0"
       style="opacity:0.3;fill:url(#radialGradient3327);fill-opacity:1;fill-rule:nonzero;stroke:none;stroke-width:1;marker:none;visibility:visible;display:inline;overflow:visible"
       id="path2883"
       d="m 40.246148,42.430102 c 0,0 0,3.569856 0,3.569856 1.1865,0.0067 2.86838,-0.799823 2.86838,-1.785158 0,-0.985333 -1.324045,-1.784697 -2.86838,-1.784698 z" />
    <path
       inkscape:connector-curvature="0"
       style="color:#000000;fill:url(#radialGradient3060-0-4);fill-opacity:1;fill-rule:nonzero;stroke:url(#linearGradient3062-0-8);stroke-width:1;stroke-linecap:butt;stroke-linejoin:round;stroke-miterlimit:4;stroke-opacity:1;stroke-dasharray:none;stroke-dashoffset:0;marker:none;visibility:visible;display:inline;overflow:visible;enable-background:accumulate"
       id="path4160"
       d="m 6.4999609,0.49719907 c 8.0202951,0 35.0000391,0.002801 35.0000391,0.002801 l 4.2e-5,44.00280293 c 0,0 -23.333387,0 -35.0000811,0 0,-14.668535 0,-29.33707 0,-44.005604 z"
       sodipodi:nodetypes="ccccc" />
    <path
       style="opacity:0.5;fill:none;stroke:url(#linearGradient3988);stroke-width:1;stroke-linecap:round;stroke-linejoin:round;stroke-miterlimit:4;stroke-opacity:1;stroke-dasharray:none;stroke-dashoffset:0"
       d="m 40.5,43.5 -33,0 0,-41.9999997 33,0 z"
       id="rect6741-1"
       inkscape:connector-curvature="0"
       sodipodi:nodetypes="ccccc" />
    <path
       style="fill:#ffffff;stroke:none"
       d="M 17.75 14.75 C 16.432948 14.76066 14.774699 14.853885 13 15.15625 L 13 32 L 17 32 L 17 25.90625 C 17 25.90625 24.881554 26.637536 25.03125 20.875 C 25.03125 20.875 26.07089 14.682633 17.75 14.75 z M 18.15625 17.75 C 20.583249 17.759055 21.218459 18.619746 21.28125 20.21875 C 21.28125 23.571531 17 22.75 17 22.75 L 17 17.8125 C 17.423662 17.77999 17.809536 17.748706 18.15625 17.75 z M 30.40625 19.21875 C 29.434883 19.26272 28.477142 19.488458 27.625 19.96875 C 26.046189 20.899649 25.84902 23.171398 26.71875 24.65625 C 27.805593 26.260571 29.896182 26.491128 31.375 27.59375 C 32.125707 28.09218 31.739171 29.356822 30.875 29.4375 C 29.282664 29.698058 27.681476 29.12228 26.25 28.46875 L 26.25 30.75 C 26.051469 31.425895 26.881678 31.442696 27.34375 31.625 C 29.063116 32.042098 30.925379 32.104861 32.625 31.5625 C 34.12631 31.120526 35.205978 29.624154 35.125 28.0625 C 35.124477 27.644275 35.04501 27.240301 34.90625 26.84375 C 34.3147 25.20387 32.478366 24.669168 31.0625 23.96875 C 30.162807 23.738308 28.838343 22.612941 30.03125 21.84375 C 31.371911 21.423048 32.75802 22.049989 33.96875 22.59375 L 34.84375 20.5 C 35.136444 19.841861 33.717455 19.851735 33.28125 19.5625 C 32.361619 19.303334 31.377618 19.174781 30.40625 19.21875 z "
       id="path3879" />
  </g>
</svg>
